X: 1
T: Ashplant, The
T: Night in Ennis, The
T: Matt Molloy's Reel
R: reel
D: Ashplant: Autographed
M: C|
K: D
AF~F2 BFAF|DEFA BABd|eB~B2 egfe|dfed BcdB|
AF~F2 BFAF|DEFA BABd|(3efg fg efdB|AFGE FDD2:|
|:d3e ~f3g|afbf afdf|eB~B2 FB~B2|fedf edBd|
AF~F2 ABdf|afbf afed|(3efg fg efdB|AFGE FDD2:|
